X:1
T:Menousis
O:Greece
S:Anna Fraser <annafraser:the-tree.org.uk> 2007-5-9
M:4/4
L:1/8
K:D
|: "D"ffe2 d3z | ffed ffe2 | "Bm"B8 | "A"A8 | [M:2/4] z4:|
M:4/4
|: "Bm"dd c2 (B3A) | ddcB "A"cde2 | "Bm"B8 | "A"A8 | [M:2/4] z4:|
